images/content/semiregular-convex-uniform/triangular-prism.svg

<?xml version="1.0" encoding="UTF-8"?>
<svg xmlns="http://www.w3.org/2000/svg" xmlns:xlink="http://www.w3.org/1999/xlink" width="139.84pt" height="153.07pt" viewBox="0 0 139.84 153.07" version="1.2">
<defs>
<clipPath id="clip1">
  <path d="M 0.34375 0 L 73 0 L 73 91 L 0.34375 91 Z M 0.34375 0 "/>
</clipPath>
<clipPath id="clip2">
  <path d="M 0.34375 0 L 73 0 L 73 92 L 0.34375 92 Z M 0.34375 0 "/>
</clipPath>
<clipPath id="clip3">
  <path d="M 0.34375 51 L 73 51 L 73 152 L 0.34375 152 Z M 0.34375 51 "/>
</clipPath>
<clipPath id="clip4">
  <path d="M 0.34375 51 L 73 51 L 73 152.144531 L 0.34375 152.144531 Z M 0.34375 51 "/>
</clipPath>
<clipPath id="clip5">
  <path d="M 14 90 L 131 90 L 131 152.144531 L 14 152.144531 Z M 14 90 "/>
</clipPath>
<clipPath id="clip6">
  <path d="M 70 0 L 139.339844 0 L 139.339844 150 L 70 150 Z M 70 0 "/>
</clipPath>
<clipPath id="clip7">
  <path d="M 0.34375 0 L 139.339844 0 L 139.339844 52 L 0.34375 52 Z M 0.34375 0 "/>
</clipPath>
<clipPath id="clip8">
  <path d="M 0.34375 0 L 139.339844 0 L 139.339844 53 L 0.34375 53 Z M 0.34375 0 "/>
</clipPath>
<clipPath id="clip9">
  <path d="M 14 50 L 139.339844 50 L 139.339844 152 L 14 152 Z M 14 50 "/>
</clipPath>
<clipPath id="clip10">
  <path d="M 14 49 L 139.339844 49 L 139.339844 152.144531 L 14 152.144531 Z M 14 49 "/>
</clipPath>
<clipPath id="clip11">
  <path d="M 0.34375 50 L 139.339844 50 L 139.339844 152 L 0.34375 152 Z M 0.34375 50 "/>
</clipPath>
<clipPath id="clip12">
  <path d="M 0.34375 49 L 139.339844 49 L 139.339844 152.144531 L 0.34375 152.144531 Z M 0.34375 49 "/>
</clipPath>
</defs>
<g id="surface1">
<g clip-path="url(#clip1)" clip-rule="nonzero">
<path style=" stroke:none;fill-rule:nonzero;fill:rgb(93.887329%,64.398193%,45.68634%);fill-opacity:1;" d="M 0.589844 51.980469 L 70.476562 0.253906 L 72.65625 90.949219 "/>
</g>
<g clip-path="url(#clip2)" clip-rule="nonzero">
<path style="fill:none;stroke-width:5;stroke-linecap:round;stroke-linejoin:round;stroke:rgb(13.729858%,12.159729%,12.548828%);stroke-opacity:1;stroke-miterlimit:10;" d="M 2.486179 1007.73716 L 705.59944 1528.145511 L 727.528745 615.682055 " transform="matrix(0.0993961,0,0,-0.0993961,0.342727,152.145616)"/>
</g>
<g clip-path="url(#clip3)" clip-rule="nonzero">
<path style=" stroke:none;fill-rule:nonzero;fill:rgb(93.887329%,64.398193%,45.68634%);fill-opacity:1;" d="M 72.65625 90.949219 L 14.476562 151.898438 L 0.589844 51.980469 "/>
</g>
<g clip-path="url(#clip4)" clip-rule="nonzero">
<path style="fill:none;stroke-width:5;stroke-linecap:round;stroke-linejoin:round;stroke:rgb(13.729858%,12.159729%,12.548828%);stroke-opacity:1;stroke-miterlimit:10;" d="M 727.528745 615.682055 L 142.197075 2.486805 L 2.486179 1007.73716 " transform="matrix(0.0993961,0,0,-0.0993961,0.342727,152.145616)"/>
</g>
<path style="fill-rule:nonzero;fill:rgb(26.809692%,16.621399%,50.382996%);fill-opacity:1;stroke-width:5;stroke-linecap:round;stroke-linejoin:round;stroke:rgb(13.729858%,12.159729%,12.548828%);stroke-opacity:1;stroke-miterlimit:10;" d="M 1311.091923 25.005608 L 727.528745 615.682055 L 705.59944 1528.145511 " transform="matrix(0.0993961,0,0,-0.0993961,0.342727,152.145616)"/>
<path style=" stroke:none;fill-rule:nonzero;fill:rgb(68.742371%,72.154236%,89.057922%);fill-opacity:1;" d="M 130.660156 149.660156 L 72.65625 90.949219 L 14.476562 151.898438 Z M 130.660156 149.660156 "/>
<g clip-path="url(#clip5)" clip-rule="nonzero">
<path style="fill:none;stroke-width:5;stroke-linecap:round;stroke-linejoin:round;stroke:rgb(13.729858%,12.159729%,12.548828%);stroke-opacity:1;stroke-miterlimit:10;" d="M 1311.091923 25.005608 L 727.528745 615.682055 L 142.197075 2.486805 Z M 1311.091923 25.005608 " transform="matrix(0.0993961,0,0,-0.0993961,0.342727,152.145616)"/>
</g>
<g clip-path="url(#clip6)" clip-rule="nonzero">
<path style="fill-rule:nonzero;fill:rgb(26.809692%,16.621399%,50.382996%);fill-opacity:1;stroke-width:5;stroke-linecap:round;stroke-linejoin:round;stroke:rgb(13.729858%,12.159729%,12.548828%);stroke-opacity:1;stroke-miterlimit:10;" d="M 705.59944 1528.145511 L 1395.900956 1027.426375 L 1311.091923 25.005608 " transform="matrix(0.0993961,0,0,-0.0993961,0.342727,152.145616)"/>
</g>
<g clip-path="url(#clip7)" clip-rule="nonzero">
<path style=" stroke:none;fill-rule:nonzero;fill:rgb(65.646362%,78.575134%,92.549133%);fill-opacity:1;" d="M 139.089844 50.023438 L 70.476562 0.253906 L 0.589844 51.980469 Z M 139.089844 50.023438 "/>
</g>
<g clip-path="url(#clip8)" clip-rule="nonzero">
<path style="fill:none;stroke-width:5;stroke-linecap:round;stroke-linejoin:round;stroke:rgb(13.729858%,12.159729%,12.548828%);stroke-opacity:1;stroke-miterlimit:10;" d="M 1395.900956 1027.426375 L 705.59944 1528.145511 L 2.486179 1007.73716 Z M 1395.900956 1027.426375 " transform="matrix(0.0993961,0,0,-0.0993961,0.342727,152.145616)"/>
</g>
<g clip-path="url(#clip9)" clip-rule="nonzero">
<path style=" stroke:none;fill-rule:nonzero;fill:rgb(68.615723%,36.332703%,52.149963%);fill-opacity:1;" d="M 14.476562 151.898438 L 130.660156 149.660156 L 139.089844 50.023438 "/>
</g>
<g clip-path="url(#clip10)" clip-rule="nonzero">
<path style="fill:none;stroke-width:5;stroke-linecap:round;stroke-linejoin:round;stroke:rgb(13.729858%,12.159729%,12.548828%);stroke-opacity:1;stroke-miterlimit:10;" d="M 142.197075 2.486805 L 1311.091923 25.005608 L 1395.900956 1027.426375 " transform="matrix(0.0993961,0,0,-0.0993961,0.342727,152.145616)"/>
</g>
<g clip-path="url(#clip11)" clip-rule="nonzero">
<path style=" stroke:none;fill-rule:nonzero;fill:rgb(68.615723%,36.332703%,52.149963%);fill-opacity:1;" d="M 139.089844 50.023438 L 0.589844 51.980469 L 14.476562 151.898438 "/>
</g>
<g clip-path="url(#clip12)" clip-rule="nonzero">
<path style="fill:none;stroke-width:5;stroke-linecap:round;stroke-linejoin:round;stroke:rgb(13.729858%,12.159729%,12.548828%);stroke-opacity:1;stroke-miterlimit:10;" d="M 1395.900956 1027.426375 L 2.486179 1007.73716 L 142.197075 2.486805 " transform="matrix(0.0993961,0,0,-0.0993961,0.342727,152.145616)"/>
</g>
</g>
</svg>

<svg xmlns="http://www.w3.org/2000/svg" width="186.453" height="204.093" viewBox="0 0 139.84 153.07" version="1.2"><defs><clipPath id="a"><path d="M.344 0H73v91H.344Zm0 0"/></clipPath><clipPath id="b"><path d="M.344 0H73v92H.344Zm0 0"/></clipPath><clipPath id="c"><path d="M.344 51H73v101H.344Zm0 0"/></clipPath><clipPath id="d"><path d="M.344 51H73v101.145H.344Zm0 0"/></clipPath><clipPath id="e"><path d="M14 90h117v62.145H14Zm0 0"/></clipPath><clipPath id="f"><path d="M70 0h69.34v150H70Zm0 0"/></clipPath><clipPath id="g"><path d="M.344 0H139.34v52H.344Zm0 0"/></clipPath><clipPath id="h"><path d="M.344 0H139.34v53H.344Zm0 0"/></clipPath><clipPath id="i"><path d="M14 50h125.34v102H14Zm0 0"/></clipPath><clipPath id="j"><path d="M14 49h125.34v103.145H14Zm0 0"/></clipPath><clipPath id="k"><path d="M.344 50H139.34v102H.344Zm0 0"/></clipPath><clipPath id="l"><path d="M.344 49H139.34v103.145H.344Zm0 0"/></clipPath></defs><g clip-path="url(#a)"><path style="stroke:none;fill-rule:nonzero;fill:#efa475;fill-opacity:1" d="M.59 51.98 70.477.254l2.18 90.695"/></g><g clip-path="url(#b)"><path style="fill:none;stroke-width:5;stroke-linecap:round;stroke-linejoin:round;stroke:#231f20;stroke-opacity:1;stroke-miterlimit:10" d="M2.486 1007.737 705.6 1528.146l21.93-912.464" transform="matrix(.0994 0 0 -.0994 .343 152.146)"/></g><g clip-path="url(#c)"><path style="stroke:none;fill-rule:nonzero;fill:#efa475;fill-opacity:1" d="m72.656 90.95-58.18 60.948L.59 51.98"/></g><g clip-path="url(#d)"><path style="fill:none;stroke-width:5;stroke-linecap:round;stroke-linejoin:round;stroke:#231f20;stroke-opacity:1;stroke-miterlimit:10" d="M727.529 615.682 142.197 2.487 2.487 1007.737" transform="matrix(.0994 0 0 -.0994 .343 152.146)"/></g><path style="fill-rule:nonzero;fill:#442a80;fill-opacity:1;stroke-width:5;stroke-linecap:round;stroke-linejoin:round;stroke:#231f20;stroke-opacity:1;stroke-miterlimit:10" d="M1311.092 25.006 727.529 615.682l-21.93 912.464" transform="matrix(.0994 0 0 -.0994 .343 152.146)"/><path style="stroke:none;fill-rule:nonzero;fill:#afb8e3;fill-opacity:1" d="M130.66 149.66 72.656 90.95l-58.18 60.948Zm0 0"/><g clip-path="url(#e)"><path style="fill:none;stroke-width:5;stroke-linecap:round;stroke-linejoin:round;stroke:#231f20;stroke-opacity:1;stroke-miterlimit:10" d="M1311.092 25.006 727.529 615.682 142.197 2.487Zm0 0" transform="matrix(.0994 0 0 -.0994 .343 152.146)"/></g><g clip-path="url(#f)"><path style="fill-rule:nonzero;fill:#442a80;fill-opacity:1;stroke-width:5;stroke-linecap:round;stroke-linejoin:round;stroke:#231f20;stroke-opacity:1;stroke-miterlimit:10" d="m705.6 1528.146 690.301-500.72-84.81-1002.42" transform="matrix(.0994 0 0 -.0994 .343 152.146)"/></g><g clip-path="url(#g)"><path style="stroke:none;fill-rule:nonzero;fill:#a7c8ec;fill-opacity:1" d="M139.09 50.023 70.477.253.59 51.98Zm0 0"/></g><g clip-path="url(#h)"><path style="fill:none;stroke-width:5;stroke-linecap:round;stroke-linejoin:round;stroke:#231f20;stroke-opacity:1;stroke-miterlimit:10" d="m1395.901 1027.426-690.302 500.72L2.486 1007.737Zm0 0" transform="matrix(.0994 0 0 -.0994 .343 152.146)"/></g><g clip-path="url(#i)"><path style="stroke:none;fill-rule:nonzero;fill:#af5d85;fill-opacity:1" d="m14.477 151.898 116.183-2.238 8.43-99.637"/></g><g clip-path="url(#j)"><path style="fill:none;stroke-width:5;stroke-linecap:round;stroke-linejoin:round;stroke:#231f20;stroke-opacity:1;stroke-miterlimit:10" d="m142.197 2.487 1168.895 22.519 84.809 1002.42" transform="matrix(.0994 0 0 -.0994 .343 152.146)"/></g><g clip-path="url(#k)"><path style="stroke:none;fill-rule:nonzero;fill:#af5d85;fill-opacity:1" d="M139.09 50.023.59 51.98l13.887 99.918"/></g><g clip-path="url(#l)"><path style="fill:none;stroke-width:5;stroke-linecap:round;stroke-linejoin:round;stroke:#231f20;stroke-opacity:1;stroke-miterlimit:10" d="M1395.901 1027.426 2.486 1007.737 142.197 2.487" transform="matrix(.0994 0 0 -.0994 .343 152.146)"/></g></svg>
